X: 78
M:4/4
L:1/4
Q:200
K:G
 L:1/8 
gfed g3B|A2 g4 A2|G3A B2F2|E2 e8 f2|gfed g3B|A2A2 c3d|e2B2 A3G|G8||

